public/home/dao-it/icons/gitcoin.svg

<svg width="79" height="79" viewBox="0 0 79 79" fill="none" xmlns="http://www.w3.org/2000/svg">
<path d="M39.5002 76.5617C59.9688 76.5617 76.5619 59.9686 76.5619 39.5C76.5619 19.0314 59.9688 2.43826 39.5002 2.43826C19.0316 2.43826 2.43848 19.0314 2.43848 39.5C2.43848 59.9686 19.0316 76.5617 39.5002 76.5617Z" fill="#DFE225"/>
<path fill-rule="evenodd" clip-rule="evenodd" d="M48.5215 33.892C49.9844 35.8426 50.7159 38.5247 50.7159 40.9629C50.7159 43.4012 49.9844 45.8395 48.5215 47.7901L51.4474 49.9846C53.398 47.3025 54.3733 44.1327 54.3733 40.7191C54.3733 37.3055 53.1542 33.892 51.2036 30.966L49.4968 32.429L48.5215 33.892Z" fill="#242424"/>
<path fill-rule="evenodd" clip-rule="evenodd" d="M54.13 52.179L43.8892 44.3765C44.6207 43.4012 45.1084 42.1821 45.1084 40.963C45.1084 39.7438 44.8645 38.5247 44.1331 37.5494L49.0096 33.1605L54.13 28.2839C54.3738 28.0401 54.3738 27.3086 54.13 27.0648L53.6423 26.5772C49.9849 22.9197 45.1084 20.7253 39.988 20.4815V17.5556C39.988 17.3117 39.988 17.0679 39.988 17.0679C39.988 16.8241 39.7442 16.8241 39.7442 16.5802C39.7442 16.3364 39.5003 16.3364 39.2565 16.3364C39.0127 16.3364 39.0127 16.0926 38.7689 16.0926C38.525 16.0926 38.2812 16.0926 38.2812 16.3364C38.0374 16.3364 38.0374 16.5802 37.7935 16.5802C37.5497 16.8241 37.5497 17.0679 37.3059 17.0679C37.3059 17.3117 37.3059 17.5556 37.3059 17.5556V20.4815C36.0868 20.7253 34.8676 20.7253 33.6485 21.213V17.5556C33.6485 17.3117 33.6485 17.0679 33.6485 17.0679C33.6485 16.8241 33.4047 16.8241 33.4047 16.5802C33.1608 16.3364 33.1608 16.3364 32.917 16.3364C32.6732 16.3364 32.6732 16.0926 32.4294 16.0926C32.1855 16.0926 31.9417 16.0926 31.9417 16.3364C31.6979 16.3364 31.6979 16.5802 31.454 16.5802C31.2102 16.8241 31.2102 17.0679 31.2102 17.0679C31.2102 17.3117 31.2102 17.5556 31.2102 17.5556V22.1883C27.0652 24.1389 23.6516 27.3086 21.4571 31.4537C19.2627 35.5988 18.775 40.2315 19.5065 44.8642C20.4818 49.4969 22.9201 53.3981 26.3337 56.3241C29.7473 59.25 34.38 60.9568 39.0127 60.9568H53.8861C54.3738 60.9568 54.6176 60.4691 54.6176 60.2253V52.6667C54.6176 52.6667 54.3738 52.4228 54.13 52.179ZM39.2565 57.5432C35.5991 57.5432 31.9417 56.3241 29.2596 54.1296C26.3337 51.9352 24.3831 48.7654 23.4077 45.108C22.4324 41.4506 22.6763 37.7932 24.1392 34.3796C25.6022 30.966 28.0405 28.2839 31.2102 26.3333V31.6975C31.2102 31.9414 31.2102 32.1852 31.2102 32.1852C31.2102 32.429 31.454 32.429 31.454 32.6728C31.6979 32.9167 31.6979 32.9167 31.9417 32.9167C32.1855 32.9167 32.1855 33.1605 32.4294 33.1605C32.6732 33.1605 32.917 33.1605 32.917 32.9167C33.1608 32.9167 33.1608 32.6728 33.4047 32.6728C33.6485 32.429 33.6485 32.429 33.6485 32.1852C33.6485 31.9414 33.6485 31.6975 33.6485 31.6975V24.8704C35.5991 24.1389 37.3059 23.8951 39.2565 23.8951C42.9139 23.8951 46.3275 25.1142 49.2534 27.3086C49.4973 27.5525 49.4973 27.7963 49.2534 28.0401L41.451 35.3549C40.7195 35.1111 39.988 34.8673 39.2565 34.8673C38.525 34.8673 37.5497 35.1111 36.8182 35.3549C36.0868 35.5988 35.3553 36.3302 34.8676 36.8179C34.38 37.5494 33.8923 38.2809 33.6485 39.0123C33.4047 39.7438 33.4047 40.7191 33.4047 41.4506C33.6485 42.4259 33.8923 43.1574 34.38 43.8889C34.8676 44.6204 35.3553 45.108 36.0868 45.5957C36.8182 46.0833 37.5497 46.3272 38.525 46.571C39.2565 46.8148 40.2318 46.571 40.9633 46.3272L50.9602 53.8858L51.204 54.1296V56.8117C51.204 57.0555 50.9602 57.2994 50.7164 57.2994L39.2565 57.5432ZM41.6948 40.963C41.6948 41.4506 41.451 41.9383 41.2071 42.1821C40.9633 42.6697 40.4756 42.9136 40.2318 43.1574C39.7442 43.4012 39.2565 43.4012 38.7689 43.4012C38.2812 43.4012 37.7935 43.1574 37.5497 42.6697C37.3059 42.4259 37.0621 41.9383 36.8182 41.4506C36.8182 40.963 36.8182 40.4753 37.0621 39.9876C37.3059 39.5 37.5497 39.2562 38.0374 39.0123C38.525 38.7685 38.7689 38.5247 39.2565 38.5247C39.988 38.5247 40.4756 38.7685 40.9633 39.2562C41.451 39.5 41.6948 40.2315 41.6948 40.963Z" fill="#242424"/>
</svg>

<svg viewBox="0 0 79 79" fill="none" xmlns="http://www.w3.org/2000/svg"><path d="M39.5 76.562c20.469 0 37.062-16.593 37.062-37.062S59.969 2.438 39.5 2.438 2.438 19.031 2.438 39.5 19.032 76.562 39.5 76.562" fill="#DFE225"/><path fill-rule="evenodd" clip-rule="evenodd" d="M48.522 33.892c1.462 1.95 2.194 4.633 2.194 7.07 0 2.44-.732 4.877-2.194 6.828l2.925 2.195c1.951-2.682 2.926-5.852 2.926-9.266s-1.219-6.827-3.17-9.753l-1.706 1.463z" fill="#242424"/><path fill-rule="evenodd" clip-rule="evenodd" d="m54.13 52.179-10.24-7.803c.73-.975 1.218-2.194 1.218-3.413 0-1.22-.243-2.438-.975-3.414l4.877-4.389 5.12-4.876c.244-.244.244-.975 0-1.22l-.488-.487c-3.657-3.657-8.534-5.852-13.654-6.096v-3.413c0-.244-.244-.244-.244-.488s-.244-.244-.487-.244c-.244 0-.244-.243-.488-.243s-.488 0-.488.243c-.244 0-.244.244-.487.244-.244.244-.244.488-.488.488v3.413c-1.22.244-2.438.244-3.657.732v-4.145c0-.244-.244-.244-.244-.488-.244-.244-.244-.244-.488-.244s-.244-.243-.488-.243-.487 0-.487.243c-.244 0-.244.244-.488.244-.244.244-.244.488-.244.488v5.12c-4.145 1.95-7.558 5.12-9.753 9.266-2.194 4.145-2.682 8.777-1.95 13.41.975 4.633 3.413 8.534 6.827 11.46 3.413 2.926 8.046 4.633 12.679 4.633h14.873c.488 0 .732-.488.732-.732v-7.558zm-14.873 5.364c-3.658 0-7.315-1.219-9.997-3.413-2.926-2.195-4.877-5.365-5.852-9.022s-.732-7.315.731-10.728c1.463-3.414 3.902-6.096 7.071-8.047v5.852c0 .244.244.244.244.488.244.244.244.244.488.244.243 0 .243.243.487.243s.488 0 .488-.243c.244 0 .244-.244.488-.244.243-.244.243-.244.243-.488V24.87c1.951-.731 3.658-.975 5.608-.975 3.658 0 7.072 1.22 9.997 3.414q.366.365 0 .731l-7.802 7.315c-.732-.244-1.463-.488-2.194-.488-.732 0-1.707.244-2.439.488-.731.244-1.463.975-1.95 1.463-.488.731-.976 1.463-1.22 2.194-.243.732-.243 1.707-.243 2.439.243.975.487 1.706.975 2.438a5.7 5.7 0 0 0 1.707 1.707c.731.487 1.463.731 2.438.975.732.244 1.707 0 2.438-.244l9.997 7.559.244.244v2.682c0 .244-.244.487-.488.487zm2.438-16.58c0 .488-.244.975-.488 1.22-.244.487-.731.73-.975.974-.488.244-.975.244-1.463.244s-.975-.244-1.22-.731c-.243-.244-.487-.732-.73-1.22 0-.487 0-.975.243-1.462.244-.488.488-.732.975-.976.488-.243.732-.487 1.22-.487.731 0 1.219.244 1.706.731.488.244.732.975.732 1.707" fill="#242424"/></svg>
